X:326
T:Scholar
Z: id:dc-reel-304
M:C
L:1/8
K:D Mixolydian
A|dfaf gfeg|fdAG FGAc|BGG2 EFGg|fde^c dcBA|!
dfaf gfeg|fdAG FGAc|BGG2 EFGg|fde^c d3:|!
f|a^gaf dfaf|dfaf bagf|gfge cege|cege agfe|!
a^gaf dfaf|dfaf bagf|gfef gbag|fde^c d3:|!

